static/assets/images/networks/bnb-chain-mono.svg

<svg width="217" height="256" viewBox="0 0 217 256" fill="none" xmlns="http://www.w3.org/2000/svg">
<path d="M24.4257 128.143L24.5603 177.485L66.5014 202.156V231.043L0.0149634 192.063V113.715L24.4257 128.143ZM24.4257 78.8016V107.554L0 93.1107V64.358L24.4257 49.9143L48.9711 64.358L24.4257 78.8016ZM84.0167 64.358L108.442 49.9143L132.988 64.358L108.442 78.8016L84.0167 64.358Z" fill="black"/>
<path d="M42.5712 167.429V138.5L66.9271 152.965V181.759L42.5712 167.429ZM84.3923 212.74L108.748 227.205L133.223 212.74V241.535L108.748 256L84.3923 241.535V212.74ZM168.154 64.3791L192.51 49.9143L216.985 64.3791V93.1739L192.51 107.639V78.8439L168.154 64.3791ZM192.51 177.672L192.644 128.258L217 113.793V192.256L150.704 231.293V202.364L192.51 177.672Z" fill="black"/>
<path d="M174.806 167.102L150.694 181.507V152.561L174.806 138.021V167.102Z" fill="black"/>
<path d="M174.672 88.577L174.806 117.509L132.983 142.217V191.755L108.696 206.086L84.4085 191.755V142.217L42.586 117.509V88.577L66.9775 74.1112L108.547 98.9397L150.369 74.1112L174.776 88.577H174.672ZM42.5712 39.1746L108.562 0L174.672 39.1746L150.384 53.6404L108.562 28.8119L66.8585 53.6404L42.5712 39.1746Z" fill="black"/>
</svg>

<svg xmlns="http://www.w3.org/2000/svg" fill="none" viewBox="0 0 217 256"><path fill="#000" d="m24.426 128.143.134 49.342 41.941 24.671v28.887L.015 192.063v-78.348zm0-49.341v28.752L0 93.111V64.358l24.426-14.444L48.97 64.358zm59.59-14.444 24.426-14.444 24.546 14.444-24.546 14.444z"/><path fill="#000" d="M42.571 167.429V138.5l24.356 14.465v28.794zm41.821 45.311 24.356 14.465 24.475-14.465v28.795L108.748 256l-24.356-14.465zm83.762-148.36 24.356-14.466 24.475 14.465v28.795l-24.475 14.465V78.844zm24.356 113.292.134-49.414L217 113.793v78.463l-66.296 39.037v-28.929z"/><path fill="#000" d="m174.806 167.102-24.112 14.405v-28.946l24.112-14.54z"/><path fill="#000" d="m174.672 88.577.134 28.932-41.823 24.708v49.538l-24.287 14.331-24.287-14.331v-49.538l-41.823-24.708V88.577l24.392-14.466 41.569 24.829 41.822-24.829 24.407 14.466zm-132.1-49.402L108.561 0l66.11 39.175-24.288 14.465-41.822-24.828L66.859 53.64z"/></svg>
